svg/fluentui-system-icons/ic_fluent_sound_source_28_regular.svg

<svg width="28" height="28" viewBox="0 0 28 28" fill="none" xmlns="http://www.w3.org/2000/svg">
<path d="M14.6498 15.7264L14.7399 15.8139L22.4794 24.3273C22.6467 24.5114 22.7394 24.7512 22.7394 25C22.7394 25.5128 22.3534 25.9355 21.8561 25.9933L21.7394 26H6.26054C6.01179 26 5.77195 25.9073 5.58788 25.7399C5.21066 25.397 5.15598 24.8317 5.442 24.4254L5.52061 24.3273L13.2601 15.8139C13.2814 15.7905 13.3038 15.768 13.3273 15.7467C13.7045 15.4037 14.2725 15.403 14.6498 15.7264ZM14 17.2299L7.39083 24.5H20.6092L14 17.2299ZM14 2C21.1797 2 27 7.8203 27 15C27 18.2793 25.7858 21.275 23.7824 23.5621L23.6905 23.4372L23.5893 23.3183L22.78 22.4274C24.4768 20.4237 25.5 17.8313 25.5 15C25.5 8.64873 20.3513 3.5 14 3.5C7.64873 3.5 2.5 8.64873 2.5 15C2.5 17.8313 3.52319 20.4237 5.21997 22.4274L4.4107 23.3183C4.34436 23.3913 4.28314 23.4773 4.22703 23.5745C2.21632 21.2802 1 18.2821 1 15C1 7.8203 6.8203 2 14 2ZM14 6C18.9706 6 23 10.0294 23 15C23 17.097 22.2828 19.0265 21.0803 20.5566L20.0535 19.4286C20.963 18.1876 21.5 16.6565 21.5 15C21.5 10.8579 18.1421 7.5 14 7.5C9.85786 7.5 6.5 10.8579 6.5 15C6.5 16.6565 7.03703 18.1876 7.94648 19.4286L6.91967 20.5566C5.71719 19.0265 5 17.097 5 15C5 10.0294 9.02944 6 14 6ZM14 10C16.7614 10 19 12.2386 19 15C19 15.9195 18.7518 16.781 18.3187 17.5213L17.2382 16.3307C17.4069 15.9205 17.5 15.4711 17.5 15C17.5 13.067 15.933 11.5 14 11.5C12.067 11.5 10.5 13.067 10.5 15C10.5 15.4711 10.5931 15.9205 10.7618 16.3307L9.68128 17.5213C9.24821 16.781 9 15.9195 9 15C9 12.2386 11.2386 10 14 10Z" fill="#212121"/>
</svg>

<svg xmlns="http://www.w3.org/2000/svg" width="28" height="28"><path d="m14.65 15.726.09.088 7.74 8.513a1 1 0 0 1-.624 1.666L21.74 26H6.261a1 1 0 0 1-.819-1.575l.079-.098 7.74-8.513a1 1 0 0 1 1.39-.088ZM14 17.23 7.39 24.5h13.22L14 17.23ZM14 2c7.18 0 13 5.82 13 13a12.95 12.95 0 0 1-3.218 8.562l-.091-.125-.102-.119-.809-.89A11.454 11.454 0 0 0 25.5 15c0-6.351-5.149-11.5-11.5-11.5S2.5 8.649 2.5 15c0 2.831 1.023 5.424 2.72 7.427l-.81.891a1.48 1.48 0 0 0-.183.256A12.962 12.962 0 0 1 1 15C1 7.82 6.82 2 14 2Zm0 4a9 9 0 0 1 7.08 14.557l-1.026-1.128a7.5 7.5 0 1 0-12.107 0L6.92 20.557A9 9 0 0 1 14 6Zm0 4a5 5 0 0 1 4.319 7.521l-1.08-1.19a3.5 3.5 0 1 0-6.476 0L9.68 17.52A5 5 0 0 1 14 10Z"/></svg>
